src/images/Icons/Light/DownloadCV.svg

<svg fill="none" height="40" viewBox="0 0 41 40" width="41" xmlns="http://www.w3.org/2000/svg"><path d="m27.5928 16.3969c-.4703 0-1.0933-.0104-1.8688-.0104-1.8915 0-3.4468-1.5657-3.4468-3.475v-3.35005c0-.26354-.2114-.47812-.4724-.47812h-5.5084c-2.5712 0-4.6504 2.11037-4.6504 4.69687v11.224c0 2.7135 2.1782 4.9125 4.8649 4.9125h8.2034c2.5629 0 4.64-2.0969 4.64-4.6855v-8.3656c0-.2646-.2104-.4781-.4723-.4771-.4404.0032-.9685.0084-1.2892.0084z" fill="#cd6b55"/><path d="m24.7546 9.67427c-.3114-.32396-.8552-.10104-.8552.34793v2.7469c0 1.152.9479 2.1 2.1 2.1.7271.0083 1.7354.0104 2.5917.0083.4385-.001.6614-.525.3573-.8417-1.099-1.1427-3.0667-3.1906-4.1938-4.36143z" fill="#cd6b55"/><path d="m23.7351 20.2384c-.3042-.301-.7938-.3031-1.0979.0021l-1.6552 1.6636v-5.0282c0-.4281-.3479-.776-.7761-.776-.4281 0-.776.3479-.776.776v5.0282l-1.6563-1.6636c-.3031-.3052-.7937-.3031-1.0968-.0021-.3042.3021-.3042.7927-.0032 1.0969l2.9823 2.9958c.0709.0709.1563.1282.2511.1677.0937.0386.1958.0594.2989.0594.1042 0 .2063-.0208.3-.0604.0927-.0385.1771-.0958.2479-.1656l.0021-.0011 2.9813-2.9958c.3021-.3042.3021-.7948-.0021-1.0969z" fill="#fff"/></svg>

<svg width="41" height="40" viewBox="0 0 41 40" fill="none" xmlns="http://www.w3.org/2000/svg">
<path d="M27.5928 16.3969C27.1225 16.3969 26.4995 16.3865 25.724 16.3865C23.8325 16.3865 22.2772 14.8208 22.2772 12.9115V9.56145C22.2772 9.29791 22.0658 9.08333 21.8048 9.08333H16.2964C13.7252 9.08333 11.646 11.1937 11.646 13.7802V25.0042C11.646 27.7177 13.8242 29.9167 16.5109 29.9167H24.7143C27.2772 29.9167 29.3543 27.8198 29.3543 25.2312V16.8656C29.3543 16.601 29.1439 16.3875 28.882 16.3885C28.4416 16.3917 27.9135 16.3969 27.5928 16.3969Z" fill="#CD6B55"/>
<path d="M24.7546 9.67427C24.4432 9.35031 23.8994 9.57323 23.8994 10.0222V12.7691C23.8994 13.9211 24.8473 14.8691 25.9994 14.8691C26.7265 14.8774 27.7348 14.8795 28.5911 14.8774C29.0296 14.8764 29.2525 14.3524 28.9484 14.0357C27.8494 12.893 25.8817 10.8451 24.7546 9.67427Z" fill="#CD6B55"/>
<path d="M23.7351 20.2384C23.4309 19.9374 22.9413 19.9353 22.6372 20.2405L20.982 21.9041V16.8759C20.982 16.4478 20.6341 16.0999 20.2059 16.0999C19.7778 16.0999 19.4299 16.4478 19.4299 16.8759V21.9041L17.7736 20.2405C17.4705 19.9353 16.9799 19.9374 16.6768 20.2384C16.3726 20.5405 16.3726 21.0311 16.6736 21.3353L19.6559 24.3311C19.7268 24.402 19.8122 24.4593 19.907 24.4988C20.0007 24.5374 20.1028 24.5582 20.2059 24.5582C20.3101 24.5582 20.4122 24.5374 20.5059 24.4978C20.5986 24.4593 20.683 24.402 20.7538 24.3322L20.7559 24.3311L23.7372 21.3353C24.0393 21.0311 24.0393 20.5405 23.7351 20.2384Z" fill="white"/>
</svg>
